img/Frame.svg

<svg width="177" height="64" viewBox="0 0 177 64" fill="none" xmlns="http://www.w3.org/2000/svg">
<path d="M23.9817 12.0251C23.9817 13.7736 23.9931 15.5222 23.9817 17.2708C23.9691 21.0673 21.0457 23.9908 17.2491 23.9908C13.752 24.0022 10.2549 24.0022 6.75771 23.9908C2.92229 23.9771 0.0114286 21.0673 0 17.2205V6.80449C0.0114286 2.93249 2.92229 0.0216311 6.79429 0.00905971C10.2549 -0.00236886 13.7017 -0.00236886 17.1611 0.00905971C21.0834 0.0216311 23.9691 2.90735 23.9817 6.84106C23.9931 8.56563 23.9817 10.2891 23.9817 12.0251ZM12.0034 5.35534C11.128 5.35095 10.2603 5.52015 9.45066 5.85315C8.641 6.18614 7.90538 6.67634 7.28633 7.29539C6.66728 7.91444 6.17708 8.65006 5.84409 9.45972C5.51109 10.2694 5.34189 11.137 5.34629 12.0125C5.34342 12.8832 5.5126 13.7458 5.84409 14.5509C6.17557 15.356 6.66285 16.0877 7.27793 16.704C7.893 17.3202 8.62376 17.8089 9.42823 18.1419C10.2327 18.4749 11.095 18.6457 11.9657 18.6445C12.8414 18.6533 13.7102 18.4881 14.5216 18.1585C15.333 17.829 16.0709 17.3416 16.6925 16.7247C17.3141 16.1077 17.8071 15.3735 18.1427 14.5647C18.4784 13.7558 18.6502 12.8883 18.648 12.0125C18.6528 11.138 18.4844 10.2712 18.1523 9.46211C17.8203 8.65306 17.3312 7.91782 16.7134 7.29885C16.0956 6.67987 15.3613 6.18943 14.5529 5.85585C13.7445 5.52227 12.878 5.35216 12.0034 5.35534ZM21.3211 4.00677C21.3211 3.3062 20.7211 2.69477 20.0217 2.66963C19.2971 2.64449 18.6606 3.2822 18.648 4.00677C18.648 4.70506 19.2469 5.31763 19.9474 5.34277C20.6834 5.36792 21.3211 4.74277 21.3211 4.00563V4.00677Z" fill="black"/>
<path d="M15.9875 12.0263C15.9868 12.5519 15.8818 13.0723 15.6788 13.5571C15.4757 14.042 15.1785 14.4818 14.8045 14.8511C14.4304 15.2204 13.9868 15.5119 13.4993 15.7087C13.0119 15.9055 12.4903 16.0037 11.9646 15.9977C10.9128 15.9896 9.9068 15.5664 9.1654 14.8203C8.42401 14.0742 8.00724 13.0655 8.00576 12.0137C8.00381 11.4876 8.10579 10.9662 8.30584 10.4796C8.5059 9.99302 8.80009 9.55071 9.17154 9.17809C9.54299 8.80548 9.98437 8.50989 10.4704 8.30831C10.9563 8.10673 11.4773 8.00311 12.0035 8.00342C12.5298 8.00385 13.0509 8.10848 13.5366 8.31129C14.0223 8.51409 14.463 8.81104 14.8334 9.18502C15.2038 9.55901 15.4964 10.0026 15.6945 10.4903C15.8926 10.9779 15.9922 11.5 15.9875 12.0263Z" fill="black"/>
<g clip-path="url(#clip0)">
<path d="M122 2.69334C120.952 3.15831 119.84 3.46348 118.701 3.59867C119.901 2.88108 120.799 1.75116 121.227 0.420005C120.099 1.08932 118.865 1.561 117.579 1.81467C117.041 1.24097 116.392 0.783841 115.671 0.471672C114.949 0.159503 114.171 -0.00104186 113.385 5.08767e-06C109.676 5.08767e-06 106.951 3.46001 107.789 7.05334C105.505 6.93884 103.271 6.34512 101.231 5.31074C99.1909 4.27636 97.3915 2.82446 95.9493 1.04934C95.2147 2.31423 94.9896 3.81147 95.3198 5.23645C95.65 6.66143 96.5106 7.90709 97.7267 8.72001C96.815 8.69074 95.9235 8.44388 95.1267 8.00001C95.0613 10.664 96.9693 13.1547 99.7333 13.7093C98.8871 13.9389 97.9997 13.9722 97.1387 13.8067C97.5055 14.9482 98.2201 15.9465 99.1824 16.6618C100.145 17.3771 101.307 17.7737 102.505 17.796C100.097 19.6838 97.0381 20.5388 94 20.1733C96.6265 21.8612 99.6833 22.7573 102.805 22.7547C113.472 22.7547 119.499 13.7467 119.133 5.668C120.258 4.85442 121.229 3.84715 122 2.69334Z" fill="black"/>
</g>
<path d="M61.5878 23.9006V12.9463H64.0689L64.6289 8.664H61.5878V6.07429C61.5878 4.78057 61.8678 3.98286 63.5478 3.98286H64.7222V0.2C64.3489 0.0982857 64.0144 0 62.6144 0C59.5344 0 57.4811 1.992 57.4811 5.57714V8.76343H55V13.0457H57.4811V24L61.5878 23.9006Z" fill="black"/>
<path d="M5.7065 51.2653L10.3932 53.5432C11.2957 53.9835 11.1553 55.3014 10.1821 55.5456L5.12384 56.802C4.97486 56.8388 4.81963 56.8436 4.66863 56.816C4.51762 56.7884 4.37438 56.729 4.24858 56.642C4.12278 56.5549 4.01737 56.4421 3.93946 56.3113C3.86155 56.1805 3.81297 56.0347 3.797 55.8837C3.64135 54.536 3.78545 53.1709 4.21923 51.884C4.42717 51.2694 5.12806 50.9835 5.70756 51.2653H5.7065ZM7.7775 62.4795C8.897 63.244 10.1719 63.7576 11.5131 63.9842C11.6645 64.0093 11.8195 64.0021 11.9679 63.963C12.1162 63.9239 12.2543 63.8538 12.3729 63.7575C12.4915 63.6612 12.5879 63.5409 12.6555 63.4047C12.7232 63.2685 12.7605 63.1195 12.765 62.9679L12.9476 57.7724C12.9814 56.7748 11.7485 56.2771 11.0751 57.018L7.58434 60.882C7.48211 60.9956 7.40545 61.1294 7.35941 61.2745C7.31338 61.4196 7.29901 61.5727 7.31727 61.7237C7.33553 61.8747 7.38599 62.0202 7.46533 62.1505C7.54466 62.2807 7.65107 62.3929 7.7775 62.4795ZM14.6133 57.3268L17.3788 61.7345C17.4596 61.8638 17.5676 61.9744 17.6953 62.0589C17.8231 62.1433 17.9678 62.1997 18.1195 62.2241C18.2712 62.2486 18.4265 62.2405 18.5748 62.2005C18.7231 62.1605 18.8609 62.0895 18.9791 61.9922C20.0289 61.1268 20.8751 60.0453 21.4586 58.8232C21.524 58.6855 21.5593 58.5357 21.5621 58.3836C21.5649 58.2315 21.5351 58.0805 21.4747 57.9406C21.4143 57.8006 21.3246 57.6749 21.2116 57.5717C21.0986 57.4684 20.9648 57.39 20.8189 57.3414L15.8599 55.7376C14.9046 55.4329 14.0813 56.4785 14.6133 57.3268ZM21.5905 51.1286C21.0494 49.8875 20.2398 48.7788 19.2187 47.8802C19.1043 47.7801 18.9695 47.7053 18.8234 47.661C18.6773 47.6166 18.5233 47.6038 18.3718 47.6232C18.2202 47.6427 18.0747 47.6941 17.9449 47.7739C17.8151 47.8537 17.7042 47.96 17.6195 48.0858L14.7019 52.3954C14.1425 53.2249 14.9236 54.2987 15.8873 54.0221L20.9033 52.5926C21.5293 52.4089 21.8491 51.7244 21.5894 51.1286H21.5905ZM6.61006 41.4138C6.47629 41.4785 6.35739 41.5697 6.26074 41.6817C6.16408 41.7937 6.09174 41.9241 6.04819 42.0649C6.00465 42.2057 5.99082 42.3539 6.00758 42.5001C6.02434 42.6464 6.07132 42.7878 6.14561 42.9154L11.0434 51.3727C11.5923 52.3192 13.0468 51.93 13.0468 50.8385V41.0715C13.0484 40.9248 13.0192 40.7793 12.9608 40.6443C12.9025 40.5093 12.8164 40.3878 12.7079 40.2875C12.5995 40.1872 12.4712 40.1103 12.3311 40.0617C12.191 40.0131 12.0422 39.9938 11.8942 40.0051C10.8069 40.0886 8.82145 40.3651 6.61006 41.4159V41.4138Z" fill="black"/>
<g clip-path="url(#clip1)">
<path d="M60.2261 50.2816H70.824C70.9413 50.9788 71 51.646 71 52.2808C71 54.5416 70.5563 56.56 69.6702 58.336C68.7829 60.112 67.5191 61.5004 65.8764 62.5C64.2338 63.4996 62.3516 64 60.2261 64C58.7161 64.0042 57.2238 63.6814 55.8554 63.0544C54.4719 62.4244 53.2778 61.5724 52.2743 60.4996C51.2709 59.4268 50.474 58.1512 49.8849 56.6716C49.2933 55.1829 48.9931 53.598 49 52C49 50.3644 49.2945 48.808 49.8849 47.3284C50.4752 45.8488 51.2709 44.5732 52.2743 43.5004C53.2835 42.4231 54.5014 41.5542 55.8567 40.9444C57.2247 40.3181 58.7166 39.9956 60.2261 40C63.1497 40 65.6601 41.0464 67.755 43.1404L64.6994 46.2808C63.5017 45.0412 62.0106 44.4208 60.2261 44.4208C58.9697 44.4208 57.8073 44.7604 56.7403 45.4372C55.6733 46.114 54.8275 47.0332 54.2042 48.196C53.5775 49.3689 53.2559 50.6757 53.268 52C53.268 53.3752 53.5809 54.6436 54.2042 55.804C54.8275 56.9644 55.6733 57.886 56.7403 58.5628C57.7753 59.2303 58.9878 59.5835 60.2261 59.578C61.0743 59.578 61.8541 59.4532 62.5654 59.2036C63.2768 58.954 63.861 58.6396 64.3193 58.2652C64.7777 57.8908 65.1773 57.4636 65.5171 56.9848C65.8593 56.5048 66.1099 56.0524 66.2712 55.6252C66.4325 55.198 66.5413 54.7912 66.6 54.406H60.2261V50.2816Z" fill="black"/>
</g>
<defs>
<clipPath id="clip0">
<rect width="28" height="24" fill="white" transform="translate(94)"/>
</clipPath>
<clipPath id="clip1">
<rect width="22" height="24" fill="white" transform="translate(49 40)"/>
</clipPath>
</defs>
</svg>

<svg xmlns="http://www.w3.org/2000/svg" width="177" height="64" fill="none" xmlns:v="https://vecta.io/nano"><path d="M23.982 12.025v5.246c-.013 3.796-2.936 6.72-6.733 6.72H6.758C2.922 23.977.011 21.067 0 17.221V6.804C.011 2.932 2.922.022 6.794.009h10.367c3.922.013 6.808 2.898 6.821 6.832v5.184zm-11.978-6.67c-.875-.004-1.743.165-2.553.498a6.62 6.62 0 0 0-2.164 1.442c-.619.619-1.11 1.355-1.443 2.165a6.63 6.63 0 0 0-.498 2.553 6.61 6.61 0 0 0 6.62 6.633 6.6 6.6 0 0 0 2.556-.486 6.63 6.63 0 0 0 2.171-1.434 6.6 6.6 0 0 0 1.45-2.16 6.61 6.61 0 0 0 .505-2.552 6.62 6.62 0 0 0-6.645-6.658zm9.318-1.349c0-.701-.6-1.312-1.299-1.337-.725-.025-1.361.613-1.374 1.337 0 .698.599 1.311 1.299 1.336.736.025 1.374-.6 1.374-1.337v.001zm-5.334 8.02a3.98 3.98 0 0 1-1.183 2.825 3.99 3.99 0 0 1-1.305.858 3.98 3.98 0 0 1-1.535.289 3.99 3.99 0 0 1-3.959-3.984c-.002-.526.1-1.047.3-1.534a3.99 3.99 0 0 1 .866-1.302c.372-.373.813-.668 1.299-.87s1.007-.305 1.533-.305a3.98 3.98 0 0 1 1.533.308 3.99 3.99 0 0 1 1.297.874 4 4 0 0 1 .861 1.305 3.98 3.98 0 0 1 .293 1.536z" fill="#000"/><g clip-path="url(#A)"><path d="M122 2.693c-1.048.465-2.16.77-3.299.905 1.2-.718 2.098-1.848 2.526-3.179a11.52 11.52 0 0 1-3.648 1.395c-.538-.574-1.187-1.031-1.908-1.343A5.74 5.74 0 0 0 113.385 0c-3.709 0-6.434 3.46-5.596 7.053-2.284-.115-4.518-.708-6.558-1.743s-3.84-2.486-5.282-4.261a5.75 5.75 0 0 0 1.777 7.671 5.72 5.72 0 0 1-2.6-.72c-.065 2.664 1.843 5.155 4.607 5.709a5.76 5.76 0 0 1-2.595.097 5.75 5.75 0 0 0 5.366 3.989A11.55 11.55 0 0 1 94 20.173a16.26 16.26 0 0 0 8.805 2.581c10.667 0 16.694-9.008 16.328-17.087A11.68 11.68 0 0 0 122 2.693z" fill="#000"/></g><path d="M61.588 23.901V12.946h2.481l.56-4.282h-3.041v-2.59c0-1.294.28-2.091 1.96-2.091h1.174V.2c-.373-.102-.708-.2-2.108-.2-3.08 0-5.133 1.992-5.133 5.577v3.186H55v4.282h2.481V24l4.107-.099zM5.707 51.265l4.687 2.278c.902.44.762 1.758-.211 2.002l-5.058 1.256c-.149.037-.304.042-.455.014a1.08 1.08 0 0 1-.42-.174 1.06 1.06 0 0 1-.309-.331 1.05 1.05 0 0 1-.142-.428 9.21 9.21 0 0 1 .422-4c.208-.615.909-.901 1.488-.619h-.001zM7.778 62.48a9.4 9.4 0 0 0 3.736 1.505 1.09 1.09 0 0 0 .455-.021 1.08 1.08 0 0 0 .405-.206c.119-.096.215-.217.283-.353a1.05 1.05 0 0 0 .11-.437l.183-5.196a1.08 1.08 0 0 0-1.872-.754l-3.491 3.864a1.07 1.07 0 0 0-.225.393c-.046.145-.06.298-.042.449s.069.297.148.427a1.08 1.08 0 0 0 .312.329zm6.836-5.153l2.765 4.408a1.07 1.07 0 0 0 .317.324 1.08 1.08 0 0 0 .424.165c.152.025.307.016.455-.024a1.08 1.08 0 0 0 .404-.208c1.05-.865 1.896-1.947 2.48-3.169a1.07 1.07 0 0 0 .016-.883 1.08 1.08 0 0 0-.263-.369 1.09 1.09 0 0 0-.393-.23l-4.959-1.604a1.08 1.08 0 0 0-1.247 1.589zm6.977-6.198a9.25 9.25 0 0 0-2.372-3.248c-.114-.1-.249-.175-.395-.219a1.08 1.08 0 0 0-.878.113c-.13.08-.241.186-.325.312l-2.918 4.31c-.559.829.222 1.903 1.185 1.627l5.016-1.43c.626-.184.946-.868.686-1.464h.001zM6.61 41.414a1.08 1.08 0 0 0-.349.268 1.07 1.07 0 0 0-.254.818c.016.146.064.288.138.415l4.898 8.457c.549.947 2.003.557 2.003-.534v-9.767c.002-.147-.028-.292-.086-.427s-.144-.257-.253-.357a1.07 1.07 0 0 0-.377-.226 1.08 1.08 0 0 0-.437-.057 15.08 15.08 0 0 0-5.284 1.411v-.002z" fill="#000"/><g clip-path="url(#B)"><path d="M60.226 50.282h10.598c.117.697.176 1.364.176 1.999 0 2.261-.444 4.279-1.33 6.055S67.519 61.5 65.876 62.5s-3.525 1.5-5.65 1.5c-1.51.004-3.002-.319-4.371-.946-1.384-.63-2.578-1.482-3.581-2.555s-1.8-2.348-2.389-3.828A12.5 12.5 0 0 1 49 52c0-1.636.294-3.192.885-4.672s1.386-2.755 2.389-3.828a11.21 11.21 0 0 1 3.582-2.556c1.368-.626 2.86-.949 4.369-.944 2.924 0 5.434 1.046 7.529 3.14l-3.056 3.14c-1.198-1.24-2.689-1.86-4.473-1.86-1.256 0-2.419.34-3.486 1.016s-1.913 1.596-2.536 2.759c-.627 1.173-.948 2.48-.936 3.804 0 1.375.313 2.644.936 3.804s1.469 2.082 2.536 2.759a6.38 6.38 0 0 0 3.486 1.015c.848 0 1.628-.125 2.339-.374s1.296-.564 1.754-.938a6.52 6.52 0 0 0 1.198-1.28c.342-.48.593-.932.754-1.36s.27-.834.329-1.219h-6.374v-4.124z" fill="#000"/></g><defs><clipPath id="A"><path fill="#fff" transform="translate(94)" d="M0 0h28v24H0z"/></clipPath><clipPath id="B"><path fill="#fff" transform="translate(49 40)" d="M0 0h22v24H0z"/></clipPath></defs></svg>
